web/packages/design/src/ResourceIcon/assets/navan-light.svg

<svg width="72" height="72" viewBox="0 0 72 72" fill="none" xmlns="http://www.w3.org/2000/svg">
<path d="M13.8397 43.8653H10.5606C10.378 33.396 9.92861 30.8331 8.4962 30.8331C6.53716 30.8331 4.80983 36.7453 2.92101 43.8653H0V28.1368H3.21592V35.327C4.58514 31.0578 6.20012 27.9121 8.96665 27.9121C12.969 27.9121 13.636 32.8132 13.8397 43.8653ZM29.9754 43.8653H26.9842C24 41.0777 21.3248 38.9221 19.6606 38.9221C18.9444 38.9221 18.5161 39.3434 18.3335 40.207L17.5541 43.8653H15.1317C16.9854 36.3381 17.9754 27.9121 22.5606 27.9121C27.1457 27.9121 28.1287 36.317 29.9754 43.8653ZM19.1621 36.633C19.3446 36.6049 19.5483 36.5838 19.7519 36.5838C21.5916 36.5838 23.5927 37.8477 25.7063 39.5751C24.5126 34.1824 23.5295 30.8331 22.1322 30.8331C20.9666 30.8331 20.0679 33.059 19.1691 36.633H19.1621ZM28.6905 28.1368H32.0187C33.5916 35.5095 34.687 41.169 36.3721 41.169C38.0573 41.169 39.3072 35.2848 40.8309 28.1368H43.2534C41.3856 35.664 40.4236 44.09 35.9719 44.09C31.5272 44.09 30.5372 35.664 28.6905 28.1368ZM56.8051 43.8653H53.8139C50.8227 41.0777 48.1545 38.9221 46.4903 38.9221C45.7671 38.9221 45.3458 39.3434 45.1633 40.207L44.3768 43.8653H41.9473C43.8151 36.3381 44.8051 27.9121 49.3903 27.9121C53.9754 27.9121 54.9585 36.317 56.8051 43.8653ZM45.9918 36.633C46.1744 36.6049 46.378 36.5838 46.5816 36.5838C48.4213 36.5838 50.4225 37.8477 52.536 39.5751C51.3423 34.1824 50.3593 30.8331 48.9549 30.8331C47.7894 30.8331 46.8906 33.059 45.9918 36.633ZM71.993 43.8653H68.7068C68.5313 33.396 68.0749 30.8331 66.6425 30.8331C64.6905 30.8331 62.9561 36.7453 61.0673 43.8653H58.1463V28.1368H61.3692V35.327C62.7314 31.0578 64.3534 27.9121 67.127 27.9121C71.1223 27.9121 71.7964 32.8132 72 43.8653H71.993Z" fill="black"/>
</svg>

<svg xmlns="http://www.w3.org/2000/svg" width="72" height="72" fill="none" viewBox="0 0 72 72"><path fill="#000" d="M13.84 43.865h-3.28c-.182-10.469-.631-13.032-2.064-13.032-1.959 0-3.686 5.912-5.575 13.032H0V28.137h3.216v7.19c1.37-4.27 2.984-7.415 5.75-7.415 4.003 0 4.67 4.901 4.874 15.953m16.135 0h-2.99c-2.985-2.787-5.66-4.943-7.324-4.943-.717 0-1.145.421-1.328 1.285l-.779 3.658h-2.422c1.853-7.527 2.843-15.953 7.429-15.953 4.585 0 5.568 8.405 7.414 15.953m-10.813-7.232c.183-.028.386-.05.59-.05 1.84 0 3.84 1.265 5.954 2.992-1.193-5.393-2.177-8.742-3.574-8.742-1.165 0-2.064 2.226-2.963 5.8zm9.529-8.496h3.328c1.573 7.373 2.668 13.032 4.353 13.032s2.935-5.884 4.459-13.032h2.422c-1.867 7.527-2.83 15.953-7.281 15.953-4.445 0-5.435-8.426-7.282-15.953m28.114 15.728h-2.991c-2.991-2.787-5.66-4.943-7.324-4.943-.723 0-1.144.421-1.327 1.285l-.786 3.658h-2.43c1.868-7.527 2.858-15.953 7.443-15.953s5.569 8.405 7.415 15.953m-10.813-7.232a4 4 0 0 1 .59-.05c1.84 0 3.84 1.265 5.954 2.992-1.194-5.393-2.177-8.742-3.581-8.742-1.166 0-2.064 2.226-2.963 5.8m26.001 7.232h-3.286c-.176-10.469-.632-13.032-2.064-13.032-1.953 0-3.687 5.912-5.576 13.032h-2.92V28.137h3.222v7.19c1.362-4.27 2.984-7.415 5.758-7.415 3.995 0 4.67 4.901 4.873 15.953z"/></svg>
